X:1
T:Rise up Shepherd
B:Singing Together, Autumn 1972, BBC Publications
F:http://www.folkinfo.org/songs
M:4/4     %Meter
L:1/8     %
K:D
dB |d2 dB d2 B2 |B A3 A4 |A2 A2 =cc B2 | A A3 z2
w:There's a star in the east on Christ-mas morn, Rise up, shep-herd and fol-ler,
 dB |d2 dB d2 dB |A2 B2 ((3:2FED-)D| F2 F2 EE D2 | B, D3 z4 |
w: It-'ll lead to the place where the sav-iour's born___ Rise up shep-herd and fol-ler.
D2 F2 A2 A2 |B2 B2 A2 z2 |A2 A2 =cc B2 | A A3 z4 |
w:Leave your sheep and leave your lambs, Rise up shep-herd and fol-ler.
D2 F2 A2 A2 |B2 B2 A2 z2 |F2 F2 EE D2 | B, D3 z4 |
w:Leave your ewes and leave your rams, Rise up shep-herd and fol-ler.
(D3E) F2 z2 |A A3 z4 |A2 A2 =cc B2 | A A3 z4 |
w: Fol--ler, fol-ler, Rise up shep-herd and fol-ler,
D2 AA A2 A2 |BB A2  ((3:2FED-)D| F2 F2 EE D2 | B, D3 z4 |]
w:Fol-ler the star of Beth-e-le-hem___ Rise up shep-herd and fol-ler.
W:There's a star in the east on Christmas morn,
W:Rise up, shepherd and foller,
W:It'll lead to the place where the saviour's born
W:Rise up shepherd and foller.
W:Leave your sheep and leave your lambs,
W:Rise up shepherd and foller.
W:Leave your ewes and leave your rams,
W:Rise up shepherd and foller.
W:Foller, foller,
W:Rise up shepherd and foller,
W:Foller the star of Bethelehem
W:Rise up shepherd and foller.
W:
W:If you take good heed to the angel's words,
W:Rise up shepherd and foller,
W:You'll forget your flocks and forget your herds,
W:Rise up shepherd and foller,
W:Leave your sheep and leave your lambs,
W:Rise up shepherd and foller.
W:Leave your ewes and leave your rams,
W:Rise up shepherd and foller.
W:Foller, foller,
W:Rise up shepherd and foller,
W:Foller the star of Bethelehem
W:Rise up shepherd and foller.
W:
W:
